X:1
T:Title
%%score { 1 | ( 2 3 ) }
L:1/8
M:4/4
K:D
V:1 treble nm="Grand Piano"
V:2 bass 
V:3 bass 
V:1
 z4 z2[Q:1/4=100] [FA]2 | [FA]>[GB] [FA]>[=F^G] [^FA]2 F2 | d>e d>c d2 [DGB]2 | %3
 [FA]>[GB] [FA]>^G [DFA]2 [A,DF]2 |[M:3/4] [CE]2 F2 G2 |[M:1/4] E2 | %6
[M:4/4] [FA]>[GB] [FA]>[=F^G] [^FA]2 F2 | d>e d>c d2 B2 |[M:9/8] A>Bc- c/d/ e2- e c2 | %9
[M:3/4] [Fd]6 |] %10
V:2
 z4 z2 [D,D]2 | [D,D]2 [D,D]2 [D,D]2 [B,D]2 | [G,G]->[G,CG] [G,G]->[G,^A,G] [G,B,G]2[K:bass] G,,2 | %3
 [D,D]2 z z/ =F/ D,2 F,2 |[M:3/4] z2 D2 E2 |[M:1/4] [A,C]2 | %6
[M:4/4] [D,D]2 [D,D]2 [D,D]2[K:treble] [B,D]2 | [G,G]->[G,CG] [G,G]->[G,^A,G] [G,B,G]2 [G,DG]2 | %8
[M:9/8] [A,E]->[A,DE]E- E/[DF]/ [A,CG]2- [A,CG][K:bass] [A,E]2 |[M:3/4] [D,A,]6 |] %10
V:3
 x8 | x8 | B,2 B,2 z4[K:bass] | z2 [D,D]2 z4 |[M:3/4] A,6 |[M:1/4] x2 |[M:4/4] x6[K:treble] x2 | %7
 B,2 B,2 z4 |[M:9/8] C2 A,- A, z z z3[K:bass] |[M:3/4] x6 |] %10

